X:2184
T:Dussan ny vleiney elley
C:Traditional
O:Isle of Man 
Z:Clague collection
B:Kiaull Vannin #184 
M:6/8 
L:1/8
Q:180 
K:G 
D|G2G G2G|G3-G2 G|A2B c2d|B3 B2G|G2B ddd|c2c B2G|A2G F2E|D3-D2B| 
d2B G2F|E3 F2G|A2B A2F|D3-D2D|G2B d2B|G3 E2C|D2D E2F|G3-G2|| 

